!!!!SEGMENT: pl-wumfc--r282--003-005_paderewski-ignacy-jan--exercises-3-exercise-5.krn
!!!cenid: 18xx:3200
!!!COM: Paderewski, Ignacy Jan
!!!COM-rismID: pe30029943
!!!CDT: 1860/11/18-1941/06/29
!!!CNT: Polish
!!!GTL: [Exercises 3]
!!!OTL: [Exercise] 5
!!!OMV: 005
!!!PDT:
!!!AGN: Secular; Etude
!!!YEC: Copyright 2022 Narodowy Instytut Fryderyka Chopina (https://polishscores.org)
!!!YEM: License CC-BY-4.0 (https://creativecommons.org/licenses/by/4.0)
!!!SMS-siglum: PL-Wumfc
!!!SMS-shelfmark: R282
!!!SMS-shelfwork: 003-005 G
!!!SMS-variant:
!!!SMS-altvar:
!!!NIFC-rismSourceID: 1001158933
!!!NIFC-rismChildID: 1001158933
!!!NIFC-islandoraID: pl-wumfc:419
!!!URL-pdf-islandora: https://repozytorium.nifc.pl/islandora/object/pl-wumfc%3A419/datastream/PDF/view
!!!URL-scan: https://polish.musicsources.pl/pl/lokalizacje/galeria/rekopisy/4702 @EN{Scan on Polish Music Sources Website} @PL{Skany w portalu Dziedzictwo Muzyki Polskiej w otwartym dostępie}
!!!IIIF:
!!!ONB-nifc: UWAGA: druga grupa ćwiczeń od skanu 0011, prawa strona, 3 system. Nr 003 i 004 nienumerowane – skan 0012, lewa strona. Nr 010 nienumerowany – skan 0014, 3 pierwsze systemy
!!!AIN: 1 piano
!!!key: F
**kern	**kern
*part1	*part1
*staff2	*staff1
*I"[Pianoforte]	*I"[Pianoforte]
*Ipiano	*Ipiano
*ICklav	*ICklav
*IGsolo	*IGsolo
*clefF4	*clefG2
*k[b-]	*k[b-]
*F:	*F:
!!LO:MO:ori
*M6/8	*M6/8
!!LO:MO:end
!!LO:MO:mod
!! *M6/4	*M6/4
!!LO:MO:end
*^	*^
!	!	!LO:TX:t=P:problem=błędnie wpisane metrum 6/8 zamiast 6/4	!
!	!	!LO:MO:mod=!LO&colon;TX&colon;a&colon;t=c.f.	!
!	!	!LO:TX:a:t=C.f	!
2.A/	2.FF\	2.f/	4f\
.	.	.	4e\
.	.	.	4d\
=1	=1	=1	=1
2.F/	2.FF\	2.a/	4c\
.	.	.	4a\
.	.	.	4g\
2.F/	2.AA\	2.cc/	4f\
.	.	.	4c\
.	.	.	4d\
=2	=2	=2	=2
2.C/	2.AA\	2.a/	4e\
.	.	.	4A\
.	.	.	4B-\
2.E/	2.CC\	2.g/	4c\
.	.	.	4d\
.	.	.	4e\
=3	=3	=3	=3
2.D/	2.FF\	2.a/	4f\
.	.	.	4g\
.	.	.	4f\
2.G/	2.GG\	2.bn/	4e\
.	.	.	4d\
.	.	.	4g\
=4	=4	=4	=4
2.G;/	2.C\	2.cc;/	2.e\
2.G/	2.BB-\	2.dd/	4B-\
.	.	.	4d\
.	.	.	4e\
=5	=5	=5	=5
2.A/	2.AA\	2.cc/	4f\
!	!	!	!LO:MO:mod=!null:null
!	!	!	!LO:TX:a:t=e:color=grey
.	.	.	4A\
!	!	!	!LO:MO:mod=!null:null
!	!	!	!LO:TX:a:t=d:color=grey
.	.	.	4B-\
2.E/	2.C\	2.a/	4c\
.	.	.	4d\
.	.	.	4c\
=6	=6	=6	=6
2.G/	2.CC\	2.g/	4e\
.	.	.	4d\
.	.	.	4e\
2.D/	2.DD\	2.f/	4f\
.	.	.	4e\
.	.	.	4d\
!!LO:LB:g=original
=7	=7	=7	=7
2.E/	2.AA\	2.a/	4c\
.	.	.	4d\
.	.	.	4c\
2.E/	2.CC\	2.g/	4e\
.	.	.	4d\
.	.	.	4e\
=8	=8	=8	=8
2.D;/	2.DD\	2.f;/	2.f\
2.G/	2.C\	2.g/	4e\
.	.	.	4d\
.	.	.	4e\
=9	=9	=9	=9
2.F/	2.F\	2.a/	4f\
.	.	.	4e\
.	.	.	4d\
2.A/	2.D\	2.a/	4f 4c\
.	.	.	4A\
.	.	.	4Bn\
=10	=10	=10	=10
2.E/	2.E\	2.g/	4c\
.	.	.	4g\
.	.	.	4f\
2.G/	2.C\	2.cc/	4e\
.	.	.	4d\
.	.	.	4c\
=11	=11	=11	=11
2.A/	2.F\	2.cc/	4e 4A\
.	.	.	4c\
.	.	.	4d\
2.G/	2.G\	2.bn/	4e\
.	.	.	4d\
.	.	.	4g\
=12	=12	=12	=12
2.G;/	2.C\	2.cc;/	2.e\
2.F/	2.F\	2.a/	4f\
.	.	.	4e\
.	.	.	4f\
=13	=13	=13	=13
2.G/	2.BB-\	2.b-/	4d\
.	.	.	4c\
.	.	.	4d\
2.E/	2.C\	2.a/	4e\
.	.	.	4A\
.	.	.	4B-\
=14	=14	=14	=14
2.E/	2.CC\	2.g/	4c\
.	.	.	4d\
.	.	.	4e\
2.D/	2.DD\	2.f/	4f\
.	.	.	4e\
.	.	.	4c\
!!LO:LB:g=original
=15	=15	=15	=15
2.D/	2.GG\	2.g/	4B-\
.	.	.	4A\
.	.	.	4B-\
2.E/	2.CC\	2.e/	4c\
.	.	.	4B-\
.	.	.	4c\
=16	=16	=16	=16
!LO:SIC:o=2.A/:v	!	!	!
2.A/;	2.FF\	2.f;/	2.A\
*v	*v	*	*
*	*v	*v
==	==
*-	*-
!!!system-decoration: [(s1,s2)]
!!!filter-modern: sic -sq | shed -e "s/LO:DY:(a|b|rj)/LO:dy:$1/L" | shed -e "s/TX(.*):t=P:/tx$1:t=P:/LG" | modori -m | autostem -r | shed -e "s/yy//" | shed -k -e "s/\(y([^y])/($1/" | shed -e "s/-//B" | shed -k -e "s/[<>]//g" | shed -k -e "s/r[a-gA-G]+/r/D"
!!!ENC: Filip Voros
!!!END: 2021-11-13
!!!EED: Marta Lawrence
!!!EEV: 2021-11-15
!!!EED-modern: Antoni Szymański
!!!END-modern: 2022-09-05
